svgs/materials/action/paid.svg

<svg xmlns="http://www.w3.org/2000/svg" enable-background="new 0 0 24 24" height="24" viewBox="0 0 24 24" width="24"><g><rect fill="none" height="24" width="24"/></g><g><path d="M12,2C6.48,2,2,6.48,2,12s4.48,10,10,10s10-4.48,10-10S17.52,2,12,2z M12.88,17.76V19h-1.75v-1.29 c-0.74-0.18-2.39-0.77-3.02-2.96l1.65-0.67c0.06,0.22,0.58,2.09,2.4,2.09c0.93,0,1.98-0.48,1.98-1.61c0-0.96-0.7-1.46-2.28-2.03 c-1.1-0.39-3.35-1.03-3.35-3.31c0-0.1,0.01-2.4,2.62-2.96V5h1.75v1.24c1.84,0.32,2.51,1.79,2.66,2.23l-1.58,0.67 c-0.11-0.35-0.59-1.34-1.9-1.34c-0.7,0-1.81,0.37-1.81,1.39c0,0.95,0.86,1.31,2.64,1.9c2.4,0.83,3.01,2.05,3.01,3.45 C15.9,17.17,13.4,17.67,12.88,17.76z"/></g></svg>

<?xml version="1.0" encoding="UTF-8" standalone="no"?>
<svg
   enable-background="new 0 0 24 24"
   height="24"
   viewBox="0 0 24 24"
   width="24"
   version="1.1"
   id="svg10"
   sodipodi:docname="paid.svg"
   inkscape:version="1.2 (dc2aeda, 2022-05-15)"
   xmlns:inkscape="http://www.inkscape.org/namespaces/inkscape"
   xmlns:sodipodi="http://sodipodi.sourceforge.net/DTD/sodipodi-0.dtd"
   xmlns="http://www.w3.org/2000/svg"
   xmlns:svg="http://www.w3.org/2000/svg">
  <defs
     id="defs14" />
  <sodipodi:namedview
     id="namedview12"
     pagecolor="#ffffff"
     bordercolor="#000000"
     borderopacity="0.25"
     inkscape:showpageshadow="2"
     inkscape:pageopacity="0.0"
     inkscape:pagecheckerboard="0"
     inkscape:deskcolor="#d1d1d1"
     showgrid="false"
     inkscape:zoom="9.8333333"
     inkscape:cx="12.050847"
     inkscape:cy="12"
     inkscape:window-width="1309"
     inkscape:window-height="456"
     inkscape:window-x="0"
     inkscape:window-y="25"
     inkscape:window-maximized="0"
     inkscape:current-layer="svg10" />
  <path
     id="rect2"
     style="fill:none"
     d="M 0,0 H 24 V 24 H 0 Z" />
  <path
     d="M 12,2 C 6.48,2 2,6.48 2,12 2,17.52 6.48,22 12,22 17.52,22 22,17.52 22,12 22,6.48 17.52,2 12,2 Z m 0.88,15.76 V 19 H 11.13 V 17.71 C 10.39,17.53 8.74,16.94 8.11,14.75 l 1.65,-0.67 c 0.06,0.22 0.58,2.09 2.4,2.09 0.93,0 1.98,-0.48 1.98,-1.61 0,-0.96 -0.7,-1.46 -2.28,-2.03 -1.1,-0.39 -3.35,-1.03 -3.35,-3.31 0,-0.1 0.01,-2.4 2.62,-2.96 V 5 h 1.75 v 1.24 c 1.84,0.32 2.51,1.79 2.66,2.23 L 13.96,9.14 C 13.85,8.79 13.37,7.8 12.06,7.8 c -0.7,0 -1.81,0.37 -1.81,1.39 0,0.95 0.86,1.31 2.64,1.9 2.4,0.83 3.01,2.05 3.01,3.45 0,2.63 -2.5,3.13 -3.02,3.22 z"
     id="path6" />
</svg>
